X:1
T:Piu che mai vaga
T:Gemignano Capilupi da Modena
T:Source : Canzonette a tre voci di H.Vecchi et di G.Capilupi da Modena---Venetia---Ang;Gardano---1597. Editor : André Vierendeels (14/02/17).
T:Piu che mai vaga
T:©
T:©
T:©
C:Gemignano Capilupi
Z:©
%%score [ 1 2 3 ]
L:1/8
Q:1/4=103
M:4/4
K:C
V:1 treble nm="Soprano 1" snm="S 1"
V:2 treble nm="Soprano 2" snm="S 2"
V:3 treble-8 nm="Tenor" snm="T"
V:1
 z4 e2 f2 | g2 f4 a2 | g4 g2 c2 | d2 e2 f2 g2 | a4 g2 c2 | d2 e2 f2 ed | edcB AB c2- | c2 d2 B4 | %8
w: Piu che|mai va- ga'e|bel- la, la|mia lu- cen- te|stel- la, la|mia lu- cen- * *||* te stel-|
w: E co-|glien- do vi-|o- le, for-|no que- sto pa-|ro- le, for-|no que- sto pa- *||* * ro-|
 A8 ::[M:6/4] e2 e2 f2 e4 e2 | e2 e2 f2 g4 g2 | a3 a a2 g2 e4 |[M:4/4] d2 A2 A2 A2 | d6 d2 | %14
w: la,|sen gia can- tan- do,|sen gia can- tan- do'in|un bos- chett' a- dor-|no, ve- sti- va'i|col- li'e|
w: le,|tut- ta ri- den- te,|tut- ta ri- den- te'hor|me- co fa sog- gior-|no, a te le|col- go'ec-|
 c2 A2 c2 d2 | e8 | d4 f4 | e6 d2 | B2 A2 B4 | A4 e4 | f4 f4 | e2 d2 c2 BA | G4 c4 | B2 A2 d4- | %24
w: le cam- pa- gn'in-|tor-|no, e|le cam-|pa- gn'in- tor-|no, ve-|sti- va'i|col- * * * *|* li'e|le cam- pa-|
w: co io te n'a-|dor-|no, ec-|co io|te n'a- dor-|no, a|te le|col- * * * *|go'e, ec-|co io te|
 d2 c2 B4 | A8 :| %26
w: * gn'in- tor-|no.|
w: _ n'a- dor-|no|
V:2
 z4 ^c2 d2 |"^-natural" e2 c4 f2 | e4 e4 | z2 c2 d2 e2 | f4 e4 | z2 G2 A2 B2 | c2 e2 d2 cB | %7
w: Piu che|mai va- ga'e|bel- la,|la mia lu-|cen- te,|la mia lu-|cen- te stel- * *|
w: Non fia|piu che so-|spet- to,|s'an- ni- di|en- tro,|s'an- ni- di'en-|tro'al tuo pet- * *|
 A3 B ^G4 | A8 ::[M:6/4] ^c2 c2 d2 c4 c2 | ^c2 c2 d2 e4 e2 | f3 f f2 d2 ^c4 |[M:4/4] d8 | %13
w: |la,|sen gia can- tan- do,|sen gia can- tan- do'in|un bos- chett' a- dor-|no,|
w: |to,|gio- is- ca ogn'- hor,|gio- is- ca'o- gn'hor ne|mai al- tri le- ga-|mi,|
 z2 D2 D2 D2 | A6 B2 | c2 A2 c2 c2 | B4 A2 A2 | c6 A2 | ^G2 A4 G2 | A2 A2 A2 A2 | d6 d2 | %21
w: ve- sti- va'i|col- li'e|le cam- pa- gn'in-|tor- no, e|le cam-|pa- gn'in- tor-|no, ve- sti- va'i|col- li'e|
w: al- tri so-|spi- ri'al-|tri- so- spi- ri,|de- fian do-|chia- mi,|chi- a- *|mi, de- fian- do|chia- mi,|
 c2 A2 c2 d2 | e6 e2 | d2 c2 B2 A2 | ^G2 A4 G2 | A8 :| %26
w: le cam- pa- gn'in-|tor- no'e|le cam- pa- gn'in|tor- * *|no.|
w: de fian- * do|chia- mi,|de fian- do chi-|a- * *|mi.|
V:3
 z4 A2 d2 |"^-natural" c2 F4 F2 | c4 c4 | z2 c2 _B2 G2 | FGAB c2 A2 | G2 FE D4 | A2 c2 d2 e2 | %7
w: Piu che|mai va- ga'e|bel- la,|la mia lu-|cen- * * * * te|stel- * * *|la, la mia lu-|
w: E'in que-|sto'u- scir dal|fio- re,|sen- ti'i dop-|pio _ _ _ _ va-|lo- * * *|re, sen- ti'i dop-|
 f2 d2 e4 | A8 ::[M:6/4] A2 A2 D2 A4 A2 |"^-natural""^-natural" A2 A2 d2 c4 c2 | F3 F F2 G2 A4 | %12
w: cen- te stel-|la,|sen gia can- tan- do,|sen gia can- tan- do'in|un bos- chett' a- dor-|
w: pio va- lo-|re,|che m'or- no'il cri- ne,|che mor- no'il cri- n'e|con si gran con- ten-|
[M:4/4] D8 | z8 | z8 | A4 A2 A2 | d6 d2 | c2 A2 c2 d2 | e8 | A8 | z2 D2 D2 D2 | A6 B2 | c4 C4 | %23
w: no,|||ve- sti- va'i|col- li'e|le cam- pa- gn'in-|tor-|no,|ve- sti- va'i|col- li'e|le cam-|
w: to,|||mi strin- te'il|cor, ch'al-|tro pia- cer non|sen-|to,|mi strin- tr'il|cor, ch'al-|tro pia-|
 D4 D4 | E8 | A8 :| %26
w: pa- gn'in-|tor-|no.|
w: cer non|sen-|to.|

